src/components/Footer/images/logo-4.svg

<svg xmlns="http://www.w3.org/2000/svg" width="470" height="262" fill="none"><g fill="#2C2C2C" clip-path="url(#a)"><path d="M259.774 131.072c-.62.456-1.36.986-2.255 1.618-5.73 4.058-14.046 6.839-24.856 6.839h-.719c-10.802 0-19.127-2.781-24.857-6.839a238.476 238.476 0 0 1-2.25-1.618 104.71 104.71 0 0 1 2.25-1.626c5.73-4.054 14.051-6.839 24.857-6.839h.719c10.814 0 19.135 2.785 24.856 6.839a90.92 90.92 0 0 1 2.255 1.626Zm55.861-33.46s-4.92-3.759-20.482-9.476C281.488 83.126 271.188 82 271.188 82l.041 29.465c0 4.148-1.13 7.935-4.296 12.251-11.607-4.23-22.59-6.834-34.583-6.834-11.992 0-22.967 2.6-34.578 6.834-3.17-4.296-4.296-8.107-4.296-12.251L193.521 82s-10.374 1.109-24.047 6.136C153.92 93.87 149 97.611 149 97.611c.645 13.373 12.354 25.259 30.795 33.461-18.457 8.19-30.167 20.051-30.795 33.457 0 0 4.92 3.754 20.474 9.475 13.665 5.011 23.978 6.136 23.978 6.136l-.05-29.469c0-4.148 1.138-7.935 4.296-12.247 11.611 4.23 22.581 6.826 34.578 6.826 11.993 0 22.972-2.6 34.583-6.826 3.17 4.3 4.296 8.103 4.296 12.247l-.041 29.469s10.304-1.117 23.969-6.136c15.562-5.729 20.482-9.475 20.482-9.475-.645-13.377-12.354-25.267-30.795-33.457 18.453-8.206 30.159-20.055 30.795-33.465m5.557 63.357c0 .698-.419 1.335-1.068 1.602a1.719 1.719 0 0 1-1.889-.37 1.725 1.725 0 0 1-.378-1.889c.267-.645.9-1.068 1.602-1.068.456 0 .899.177 1.224.501.328.325.509.764.509 1.224Zm.366 0c0-.85-.51-1.618-1.294-1.943a2.09 2.09 0 0 0-2.288.452 2.104 2.104 0 0 0-.46 2.284 2.11 2.11 0 0 0 1.943 1.298 2.096 2.096 0 0 0 2.095-2.095"/><path d="M319.812 161.978h.378l-.608-.862a.531.531 0 0 0 .361-.185.533.533 0 0 0 .12-.39c0-.329-.181-.55-.645-.55h-.719v1.987h.337v-.85h.18l.596.85Zm-.805-1.733h.316c.271 0 .386.095.386.308 0 .218-.098.325-.386.325h-.316v-.633Z"/></g><defs><clipPath id="a"><path fill="#fff" d="M149 82h172.5v98.571H149z"/></clipPath></defs></svg>

<svg width="470" height="262" viewBox="0 0 470 262" fill="none" xmlns="http://www.w3.org/2000/svg">
<g clip-path="url(#clip0_1_124)">
<path d="M259.774 131.072C259.154 131.528 258.414 132.058 257.519 132.69C251.789 136.748 243.473 139.529 232.663 139.529H231.944C221.142 139.529 212.817 136.748 207.087 132.69C206.2 132.058 205.461 131.528 204.837 131.072C205.461 130.604 206.2 130.074 207.087 129.446C212.817 125.392 221.138 122.607 231.944 122.607H232.663C243.477 122.607 251.798 125.392 257.519 129.446C258.414 130.074 259.149 130.604 259.774 131.072ZM315.635 97.6113C315.635 97.6113 310.715 93.8533 295.153 88.1361C281.488 83.1254 271.188 82.0001 271.188 82.0001L271.229 111.465C271.229 115.613 270.099 119.4 266.933 123.716C255.326 119.486 244.343 116.882 232.35 116.882C220.358 116.882 209.383 119.482 197.772 123.716C194.602 119.42 193.476 115.609 193.476 111.465L193.521 82.0001C193.521 82.0001 183.147 83.109 169.474 88.1361C153.92 93.8697 149 97.6113 149 97.6113C149.645 110.984 161.354 122.87 179.795 131.072C161.338 139.262 149.628 151.123 149 164.529C149 164.529 153.92 168.283 169.474 174.004C183.139 179.015 193.452 180.14 193.452 180.14L193.402 150.671C193.402 146.523 194.54 142.736 197.698 138.424C209.309 142.654 220.279 145.25 232.276 145.25C244.269 145.25 255.248 142.65 266.859 138.424C270.029 142.724 271.155 146.527 271.155 150.671L271.114 180.14C271.114 180.14 281.418 179.023 295.083 174.004C310.645 168.275 315.565 164.529 315.565 164.529C314.92 151.152 303.211 139.262 284.77 131.072C303.223 122.866 314.929 111.017 315.565 97.6072M321.122 160.964C321.122 161.662 320.703 162.299 320.054 162.566C319.409 162.841 318.662 162.693 318.165 162.196C317.668 161.703 317.516 160.956 317.787 160.307C318.054 159.662 318.687 159.239 319.389 159.239C319.845 159.239 320.288 159.416 320.613 159.74C320.941 160.065 321.122 160.504 321.122 160.964ZM321.488 160.964C321.488 160.114 320.978 159.346 320.194 159.021C319.414 158.693 318.51 158.869 317.906 159.473C317.307 160.069 317.126 160.972 317.446 161.757C317.775 162.541 318.539 163.055 319.389 163.055C320.543 163.055 321.484 162.118 321.484 160.96" fill="white"/>
<path d="M319.812 161.978H320.19L319.582 161.116C319.722 161.104 319.853 161.038 319.943 160.931C320.034 160.82 320.075 160.685 320.063 160.541C320.063 160.212 319.882 159.991 319.418 159.991H318.699V161.978H319.036V161.128H319.216L319.812 161.978ZM319.007 160.245H319.323C319.594 160.245 319.709 160.34 319.709 160.553C319.709 160.771 319.611 160.878 319.323 160.878H319.007V160.245Z" fill="white"/>
</g>
<defs>
<clipPath id="clip0_1_124">
<rect width="172.5" height="98.5714" fill="white" transform="translate(149 82.0001)"/>
</clipPath>
</defs>
</svg>
